Simply-Orange-Circles/scalable/apps/tor.svg

<?xml version="1.0" encoding="UTF-8" standalone="no"?><svg xmlns:dc="http://purl.org/dc/elements/1.1/" xmlns:cc="http://creativecommons.org/ns#" xmlns:rdf="http://www.w3.org/1999/02/22-rdf-syntax-ns#" xmlns="http://www.w3.org/2000/svg" width="48" height="48" viewBox="0 0 12.7 12.7"><metadata><rdf:RDF><cc:Work><dc:format>image/svg+xml</dc:format><dc:type rdf:resource="http://purl.org/dc/dcmitype/StillImage"/><dc:title/></cc:Work></rdf:RDF></metadata><path d="M6.34.07a6.29 6.29 0 0 0-6.28 6.3 6.29 6.29 0 0 0 6.29 6.28 6.29 6.29 0 0 0 6.28-6.29A6.29 6.29 0 0 0 6.34.07zm-.01.94a5.4 5.4 0 0 1 5.4 5.4 5.4 5.4 0 0 1-5.4 5.41 5.4 5.4 0 0 1-5.41-5.4A5.4 5.4 0 0 1 6.32 1z" fill="#ff7f2a"/><rect width="9.55" height="9.55" x="-11.15" y="-11.1" rx="4.78" ry="4.78" transform="matrix(0 -1 -1 0 0 0)" fill="#7535a0"/><path d="M6.35 1.84l-.55.06-.69.19-.13.13.43.29v.16l-.28.17.33.44.15-.08.19-.3c.28-.08.54-.18.8-.3l.2-.57zm-1.31.04l-.24.04-.11.1-.19.03-.16.08-.08.04-.05.07.24.04.09-.09.18-.04c.13-.06.26-.1.4-.14zm-1.09.5l-.04.09.02.2-.15.13-.09.23h.19l.09-.2.24-.18.18.07.37.25.19-.17-.2-.08-.1-.2-.35-.03-.02-.1-.16.03-.08.15zm4.73.17l-.35.08-.23.15v.12l-.35.23.08.34.2-.15.13.15.15.08.09-.25-.06-.14.06-.1.2-.27h.1l-.1.28v.19l.26-.04-.24.17-.02.1-.27.23-.28-.06v-.17l-.13.08.06.2h-.2l-.12.14-.14.15-.25.06.15.14.04.15h-.19l-.23.12v.38h.1l.1.11.24-.11.09-.23.17-.1.03-.09.28-.06.15.17.16.08-.09.19.15-.04.07-.2-.18-.2h.07l.19.14.03.21.17.2.04-.28.09-.04.24.31.27.02.17.1-.07.11-.17.15H9.1l-.31-.1-.17.01-.12.14-.34-.34-.24-.07-.35.04-.32.09-.49.6-.2.48.1.1-.17.26.18.44c.16.17.29.35.45.53l.23-.2.1.12.25-.16.08.1h.25l.14.16-.08.28.17.2v.35l.12.25-.14.2v.46c.07.21.1.42.18.63l.06.33v.17h.2l.2-.12h.17l.2-.15.23-.26-.05-.14.24-.2-.17-.2.21-.18.18-.13.1-.1-.06-.23v-.59l.19-.35.2-.23.22-.54v-.15l-.32.03.22-.22.3-.2.17-.2v-.2l-.11-.21-.15.17-.11-.13-.17-.12v-.28l.2.22.21-.03c.1.09.2.17.28.27l.02-.02c-.1-1.1-.58-2.1-1.3-2.86-.05-.04-.1-.08-.12-.12l-.17-.15-.06.08-.18.21L9 2.8h.24l.1-.07-.43-.09zm-5.22 0l-.08.07.03.16-.26.03a4.76 4.76 0 0 0-1.6 3.56l.07.13.4.23.38.1.17.2.25.2.15-.02.11.05v.03l-.15.4-.1.16.03.09-.12.31.36.6.24.3.14.2-.01.45.2.25-.06.26c.21.15.44.27.68.39l.08-.1.06-.14.24-.08.22-.46-.1-.12.14-.26.27-.07.17-.26-.05-.42.26-.31.04-.31c-.3-.15-.65-.3-.95-.46l-.15-.3-.28-.06-.14-.27-.37.04-.32-.27-.33.21v.05c-.1-.03-.22-.04-.31-.1l-.08-.2v-.23l-.22.02.06-.44H2.4l-.13.17-.13.06-.18-.1-.02-.23.04-.25.27-.21h.22l.04-.13.28.07.18.25.03-.42.38-.3.13-.3.25-.02.15-.2.33-.07.17-.25h-.5l.32-.14h.22l.31-.2.04-.13-.11-.1-.13-.05.04-.12-.1-.19-.22.08.04-.16-.26-.15-.2.36.02.12-.2.09-.14.27-.05-.25-.35-.15-.06-.19.46-.27.2-.19.02-.23-.1-.06zm3.5.22l-.26.09-.12-.02-.02.12.18.08.34-.14-.11-.13zm-2.55.1l-.15.1.19.12h.15v-.14zm2.92.47v.13l.07.08v.19l-.04.25.2-.04.15-.15-.13-.12-.14-.34zm-.08.25l-.13.05.04.23.17-.09zm-2.54.38l.05.3.11-.18zM9.52 5.6l.22.24.25.53.14.17-.07.19.14.15-.2.01a7.2 7.2 0 0 1-.29-.75l-.2-.18-.09-.3z" opacity=".3"/></svg>

<?xml version="1.0" encoding="UTF-8" standalone="no"?>
<svg
   xmlns:dc="http://purl.org/dc/elements/1.1/"
   xmlns:cc="http://creativecommons.org/ns#"
   xmlns:rdf="http://www.w3.org/1999/02/22-rdf-syntax-ns#"
   xmlns:svg="http://www.w3.org/2000/svg"
   xmlns="http://www.w3.org/2000/svg"
   xmlns:sodipodi="http://sodipodi.sourceforge.net/DTD/sodipodi-0.dtd"
   xmlns:inkscape="http://www.inkscape.org/namespaces/inkscape"
   width="48"
   height="48"
   viewBox="0 0 12.7 12.7"
   version="1.1"
   id="svg10"
   sodipodi:docname="tor.svg"
   inkscape:version="0.92.4 (5da689c313, 2019-01-14)">
  <defs
     id="defs14" />
  <sodipodi:namedview
     pagecolor="#ffffff"
     bordercolor="#666666"
     borderopacity="1"
     objecttolerance="10"
     gridtolerance="10"
     guidetolerance="10"
     inkscape:pageopacity="0"
     inkscape:pageshadow="2"
     inkscape:window-width="1087"
     inkscape:window-height="480"
     id="namedview12"
     showgrid="false"
     inkscape:zoom="4.9166667"
     inkscape:cx="2.1355932"
     inkscape:cy="24"
     inkscape:window-x="0"
     inkscape:window-y="25"
     inkscape:window-maximized="0"
     inkscape:current-layer="svg10" />
  <metadata
     id="metadata2">
    <rdf:RDF>
      <cc:Work>
        <dc:format>image/svg+xml</dc:format>
        <dc:type
           rdf:resource="http://purl.org/dc/dcmitype/StillImage" />
        <dc:title></dc:title>
      </cc:Work>
    </rdf:RDF>
  </metadata>
  <path
     d="M 6.34,0.07 A 6.29,6.29 0 0 0 0.06,6.37 6.29,6.29 0 0 0 6.35,12.65 6.29,6.29 0 0 0 12.63,6.36 6.29,6.29 0 0 0 6.34,0.07 Z M 6.33,1.01 a 5.4,5.4 0 0 1 5.4,5.4 5.4,5.4 0 0 1 -5.4,5.41 A 5.4,5.4 0 0 1 0.92,6.42 5.4,5.4 0 0 1 6.32,1 Z"
     id="path4"
     inkscape:connector-curvature="0"
     style="fill:#ff7f2a;fill-opacity:0.98999999" />
  <rect
     width="9.5500002"
     height="9.5500002"
     x="-11.15"
     y="-11.1"
     rx="4.7800002"
     ry="4.7800002"
     transform="matrix(0,-1,-1,0,0,0)"
     id="rect6"
     style="fill:#7535a0" />
  <path
     d="M 6.35,1.84 5.8,1.9 5.11,2.09 4.98,2.22 5.41,2.51 V 2.67 L 5.13,2.84 5.46,3.28 5.61,3.2 5.8,2.9 C 6.08,2.82 6.34,2.72 6.6,2.6 L 6.8,2.03 Z M 5.04,1.88 4.8,1.92 4.69,2.02 4.5,2.05 4.34,2.13 4.26,2.17 4.21,2.24 4.45,2.28 4.54,2.19 4.72,2.15 C 4.85,2.09 4.98,2.05 5.12,2.01 Z M 3.95,2.38 3.91,2.47 3.93,2.67 3.78,2.8 3.69,3.03 H 3.88 L 3.97,2.83 4.21,2.65 4.39,2.72 4.76,2.97 4.95,2.8 4.75,2.72 4.65,2.52 4.3,2.49 4.28,2.39 4.12,2.42 4.04,2.57 Z M 8.68,2.55 8.33,2.63 8.1,2.78 V 2.9 L 7.75,3.13 7.83,3.47 8.03,3.32 8.16,3.47 8.31,3.55 8.4,3.3 8.34,3.16 8.4,3.06 8.6,2.79 H 8.7 L 8.6,3.07 V 3.26 L 8.86,3.22 8.62,3.39 8.6,3.49 8.33,3.72 8.05,3.66 V 3.49 L 7.92,3.57 7.98,3.77 H 7.78 L 7.66,3.91 7.52,4.06 7.27,4.12 7.42,4.26 7.46,4.41 H 7.27 L 7.04,4.53 v 0.38 h 0.1 L 7.24,5.02 7.48,4.91 7.57,4.68 7.74,4.58 7.77,4.49 8.05,4.43 8.2,4.6 8.36,4.68 8.27,4.87 8.42,4.83 8.49,4.63 8.31,4.43 H 8.38 L 8.57,4.57 8.6,4.78 8.77,4.98 8.81,4.7 8.9,4.66 9.14,4.97 9.41,4.99 9.58,5.09 9.51,5.2 9.34,5.35 H 9.1 L 8.79,5.25 8.62,5.26 8.5,5.4 8.16,5.06 7.92,4.99 7.57,5.03 7.25,5.12 6.76,5.72 6.56,6.2 6.66,6.3 6.49,6.56 6.67,7 c 0.16,0.17 0.29,0.35 0.45,0.53 l 0.23,-0.2 0.1,0.12 0.25,-0.16 0.08,0.1 h 0.25 l 0.14,0.16 -0.08,0.28 0.17,0.2 v 0.35 l 0.12,0.25 -0.14,0.2 v 0.46 c 0.07,0.21 0.1,0.42 0.18,0.63 l 0.06,0.33 v 0.17 h 0.2 L 8.88,10.3 H 9.05 L 9.25,10.15 9.48,9.89 9.43,9.75 9.67,9.55 9.5,9.35 9.71,9.17 9.89,9.04 9.99,8.94 9.93,8.71 V 8.12 L 10.12,7.77 10.32,7.54 10.54,7 V 6.85 l -0.32,0.03 0.22,-0.22 0.3,-0.2 0.17,-0.2 V 6.06 L 10.8,5.85 10.65,6.02 10.54,5.89 10.37,5.77 V 5.49 l 0.2,0.22 0.21,-0.03 c 0.1,0.09 0.2,0.17 0.28,0.27 L 11.08,5.93 C 10.98,4.83 10.5,3.83 9.78,3.07 9.73,3.03 9.68,2.99 9.66,2.95 L 9.49,2.8 9.43,2.88 9.25,3.09 9,2.8 H 9.24 L 9.34,2.73 8.91,2.64 Z m -5.22,0 -0.08,0.07 0.03,0.16 -0.26,0.03 a 4.76,4.76 0 0 0 -1.6,3.56 l 0.07,0.13 0.4,0.23 0.38,0.1 0.17,0.2 0.25,0.2 0.15,-0.02 0.11,0.05 v 0.03 l -0.15,0.4 -0.1,0.16 0.03,0.09 -0.12,0.31 0.36,0.6 0.24,0.3 0.14,0.2 -0.01,0.45 0.2,0.25 -0.06,0.26 c 0.21,0.15 0.44,0.27 0.68,0.39 L 4.37,10.6 4.43,10.46 4.67,10.38 4.89,9.92 4.79,9.8 4.93,9.54 5.2,9.47 5.37,9.21 5.32,8.79 5.58,8.48 5.62,8.17 C 5.32,8.02 4.97,7.87 4.67,7.71 L 4.52,7.41 4.24,7.35 4.1,7.08 3.73,7.12 3.41,6.85 3.08,7.06 V 7.11 C 2.98,7.08 2.86,7.07 2.77,7.01 L 2.69,6.81 V 6.58 L 2.47,6.6 2.53,6.16 H 2.4 L 2.27,6.33 2.14,6.39 1.96,6.29 1.94,6.06 1.98,5.81 2.25,5.6 H 2.47 L 2.51,5.47 2.79,5.54 2.97,5.79 3,5.37 3.38,5.07 3.51,4.77 3.76,4.75 3.91,4.55 4.24,4.48 4.41,4.23 H 3.91 L 4.23,4.09 H 4.45 L 4.76,3.89 4.8,3.76 4.69,3.66 4.56,3.61 4.6,3.49 4.5,3.3 4.28,3.38 4.32,3.22 4.06,3.07 3.86,3.43 3.88,3.55 3.68,3.64 3.54,3.91 3.49,3.66 3.14,3.51 3.08,3.32 3.54,3.05 3.74,2.86 3.76,2.63 3.66,2.57 Z M 6.96,2.77 6.7,2.86 6.58,2.84 6.56,2.96 6.74,3.04 7.08,2.9 6.97,2.77 Z M 4.41,2.87 4.26,2.97 4.45,3.09 H 4.6 V 2.95 Z M 7.33,3.34 V 3.47 L 7.4,3.55 V 3.74 L 7.36,3.99 7.56,3.95 7.71,3.8 7.58,3.68 7.44,3.34 Z M 7.25,3.59 7.12,3.64 7.16,3.87 7.33,3.78 Z M 4.71,3.97 4.76,4.27 4.87,4.09 Z M 9.52,5.6 9.74,5.84 9.99,6.37 10.13,6.54 10.06,6.73 10.2,6.88 10,6.89 A 7.2,7.2 0 0 1 9.71,6.14 L 9.51,5.96 9.42,5.66 Z"
     id="path8"
     inkscape:connector-curvature="0"
     style="opacity:0.3" />
</svg>
